64x64/apps/pico-8.svg

<svg height="64" width="64" xmlns="http://www.w3.org/2000/svg"><path d="m26 5v11h12v-11zm12 11v11h11v-11zm11 11v12h11v-12zm0 12h-11v11h11zm-11 11h-12v11h12zm-12 0v-11h-11v11zm-11-11v-12h-11v12zm0-12h11v-11h-11z" opacity=".2"/><path d="m15 15h11v11h-11z" fill="#fea200"/><path d="m26 4h12v11h-12z" fill="#fe004c"/><path d="m38 15h11v11h-11z" fill="#fecba9"/><path d="m4 26h11v12h-11z" fill="#fefe26"/><g transform="scale(-1)"><path d="m-49-49h11v11h-11z" fill="#82759b"/><path d="m-38-60h12v11h-12z" fill="#28acfe"/><path d="m-26-49h11v11h-11z" fill="#00e655"/><path d="m-60-38h11v12h-11z" fill="#fe76a7"/></g><path d="m26 16v11h-11v12h11v11h12v-11h11v-12h-11v-11z" opacity=".2"/><path d="m26 15v11h-11v12h11v11h12v-11h11v-12h-11v-11z" fill="#fdf0e8"/><path d="m26 4v1h12v-1zm-11 11v1h11v-1zm23 0v1h11v-1zm-34 11v1h11v-1zm45 0v1h11v-1z" fill="#f4f4f7" opacity=".2"/></svg>

<svg width="64" height="64" xmlns="http://www.w3.org/2000/svg"><path d="M26 5v11h12V5zm12 11v11h11V16zm11 11v12h11V27zm0 12H38v11h11zM38 50H26v11h12zm-12 0V39H15v11zM15 39V27H4v12zm0-12h11V16H15z" style="opacity:.2"/><path style="fill:#fea200" d="M15 15h11v11H15z"/><path style="fill:#fe004c" d="M26 4h12v11H26z"/><path style="fill:#fecba9" d="M38 15h11v11H38z"/><path style="fill:#fefe26" d="M4 26h11v12H4z"/><path transform="scale(-1)" style="fill:#82759b" d="M-49-49h11v11h-11z"/><path transform="scale(-1)" style="fill:#28acfe" d="M-38-60h12v11h-12z"/><path transform="scale(-1)" style="fill:#00e655" d="M-26-49h11v11h-11z"/><path transform="scale(-1)" style="fill:#fe76a7" d="M-60-38h11v12h-11z"/><path d="M26 16v11H15v12h11v11h12V39h11V27H38V16z" style="opacity:.2"/><path d="M26 15v11H15v12h11v11h12V38h11V26H38V15H26z" style="fill:#fdf0e8"/><path d="M26 4v1h12V4H26zM15 15v1h11v-1H15zm23 0v1h11v-1H38zM4 26v1h11v-1H4zm45 0v1h11v-1H49z" style="fill:#f4f4f7;opacity:.2"/></svg>
